X:1
T:Svingedans
T:(FMK Sk 18 bild 9)
T:efter Håkan Lasson
B:Folkmusikkommissionen
R:Svingedans
O:Högestad, Skåne
Z:Åke Persson 2012-02-28
M:3/4
L:1/8
Q:108
%%printtempo 0
%%MIDI ratio 2 1
K:G
|: Bd gG Bd | de/d/ c2 e2 | cB cD FA | cB/c/ B2 g2 |
 Bd gG Bd | de/d/ c2 eg | dB G2 Bd | AB A2 G2 :|
|: dB GG Bd | de/d/ c2 e2 | cB cD FA | cB/c/ B2 g2 |
 dB GG BB | de/d/ c2 eg | dB G2 Bd | AB A2 G2 :|

